; HEADER_BLOCK_START
; generated by OrcaSlicer 1.8.0 on 2023-11-21 at 20:39:01
; total layer number: 240
; HEADER_BLOCK_END

; THUMBNAIL_BLOCK_START

;
; THUMBNAIL_BLOCK_END

; external perimeters extrusion width = 0.42mm
; perimeters extrusion width = 0.45mm
; infill extrusion width = 0.45mm
; solid infill extrusion width = 0.42mm
; top infill extrusion width = 0.42mm
; first layer extrusion width = 0.50mm

; EXECUTABLE_BLOCK_START
EXCLUDE_OBJECT_DEFINE NAME=3dbenchy.stl_id_0_copy_0 CENTER=150,150 POLYGON=[[120,140.816],[120.002,140.755],[120.007,140.699],[120.012,140.646],[120.014,140.63],[120.02,140.583],[120.028,140.525],[120.046,140.436],[120.058,140.379],[120.074,140.322],[120.081,140.296],[120.097,140.239],[120.126,140.155],[120.14,140.118],[120.162,140.064],[120.169,140.047],[120.186,140.01],[120.209,139.958],[120.23,139.916],[120.264,139.854],[120.278,139.827],[120.291,139.806],[120.34,139.727],[120.357,139.7],[120.371,139.679],[120.405,139.631],[120.44,139.584],[120.484,139.531],[120.508,139.501],[120.539,139.466],[120.578,139.423],[120.592,139.408],[120.6,139.4],[120.641,139.359],[120.661,139.34],[120.704,139.3],[120.737,139.271],[120.783,139.234],[120.793,139.225],[120.828,139.197],[120.887,139.154],[120.935,139.121],[120.979,139.092],[121.044,139.052],[121.071,139.036],[121.124,139.008],[121.148,138.995],[121.175,138.981],[121.197,138.97],[121.253,138.944],[121.312,138.919],[121.361,138.899],[121.417,138.879],[121.429,138.875],[121.472,138.861],[121.485,138.857],[121.541,138.84],[121.548,138.838],[121.584,138.828],[121.597,138.825],[121.625,138.818],[121.64,138.814],[121.71,138.799],[121.739,138.794],[121.769,138.789],[121.798,138.784],[149.812,134.886],[150.055,134.853],[150.299,134.821],[150.543,134.791],[150.882,134.752],[151.105,134.728],[151.35,134.702],[151.596,134.678],[151.842,134.656],[152.087,134.635],[152.253,134.622],[152.333,134.616],[152.523,134.602],[152.579,134.598],[152.826,134.581],[152.987,134.571],[153.071,134.566],[153.232,134.557],[153.489,134.544],[153.597,134.539],[153.619,134.538],[153.755,134.532],[153.906,134.526],[154.05,134.521],[154.167,134.517],[154.233,134.515],[154.342,134.512],[154.46,134.509],[154.548,134.507],[154.689,134.504],[154.881,134.501],[155.062,134.499],[155.18,134.498],[155.578,134.498],[155.934,134.5],[156.369,134.508],[156.45,134.51],[156.805,134.52],[156.912,134.524],[157.24,134.537],[157.677,134.558],[158.009,134.578],[158.092,134.583],[158.202,134.59],[158.375,134.602],[158.495,134.611],[158.641,134.622],[158.728,134.629],[158.909,134.644],[159.04,134.655],[159.832,134.78],[159.841,134.782],[160.269,134.888],[160.377,134.915],[160.595,134.97],[160.737,135.007],[160.813,135.027],[160.967,135.068],[161.248,135.145],[161.424,135.195],[161.68,135.27],[161.896,135.334],[162.111,135.4],[162.332,135.47],[162.558,135.543],[162.752,135.607],[163.008,135.694],[163.178,135.753],[163.232,135.772],[163.4,135.832],[163.601,135.905],[163.822,135.987],[164.033,136.067],[164.233,136.145],[164.344,136.188],[164.443,136.228],[164.453,136.232],[164.662,136.316],[164.871,136.402],[164.927,136.425],[165.134,136.513],[165.341,136.603],[165.547,136.693],[165.957,136.879],[166.16,136.974],[166.363,137.07],[166.565,137.168],[166.766,137.267],[166.967,137.367],[167.166,137.469],[167.366,137.572],[167.563,137.677],[167.762,137.783],[167.957,137.89],[168.153,137.999],[168.348,138.11],[168.543,138.221],[168.737,138.334],[168.93,138.449],[169.123,138.565],[169.314,138.683],[169.505,138.801],[169.696,138.922],[169.885,139.043],[170.075,139.167],[170.262,139.291],[170.451,139.417],[170.637,139.544],[170.824,139.673],[171.008,139.803],[171.193,139.934],[171.376,140.067],[171.56,140.201],[171.742,140.337],[171.923,140.474],[172.104,140.612],[172.284,140.752],[172.463,140.893],[172.642,141.036],[172.82,141.18],[172.998,141.325],[173.173,141.472],[173.523,141.77],[173.697,141.921],[173.87,142.074],[174.042,142.228],[174.214,142.384],[174.328,142.489],[174.498,142.645],[174.665,142.803],[174.832,142.962],[174.996,143.122],[175.161,143.283],[175.325,143.445],[175.486,143.609],[175.647,143.773],[175.807,143.939],[175.966,144.106],[176.124,144.274],[176.282,144.443],[176.438,144.614],[176.592,144.785],[176.745,144.958],[176.898,145.132],[177.05,145.306],[177.201,145.483],[177.349,145.66],[177.498,145.838],[177.645,146.017],[177.791,146.198],[177.936,146.38],[178.081,146.563],[178.223,146.747],[178.364,146.932],[178.505,147.118],[178.645,147.305],[178.784,147.493],[178.921,147.683],[179.056,147.874],[179.192,148.065],[179.326,148.258],[179.458,148.452],[179.589,148.647],[179.618,148.692],[179.651,148.745],[179.682,148.798],[179.713,148.852],[179.742,148.907],[179.769,148.962],[179.819,149.076],[179.834,149.117],[179.856,149.175],[179.876,149.233],[179.895,149.292],[179.912,149.351],[179.929,149.413],[179.943,149.47],[179.954,149.53],[179.966,149.593],[179.975,149.652],[179.984,149.713],[179.991,149.774],[179.995,149.836],[179.998,149.905],[180,149.966],[180,150.027],[179.999,150.088],[179.996,150.149],[179.992,150.209],[179.986,150.27],[179.977,150.331],[179.968,150.391],[179.958,150.449],[179.945,150.512],[179.932,150.569],[179.916,150.632],[179.901,150.686],[179.883,150.745],[179.863,150.803],[179.842,150.861],[179.82,150.918],[179.797,150.974],[179.771,151.03],[179.744,151.086],[179.716,151.14],[179.686,151.194],[179.655,151.248],[179.623,151.301],[179.589,151.353],[179.472,151.527],[179.339,151.721],[179.206,151.914],[179.071,152.106],[178.936,152.297],[178.797,152.487],[178.659,152.676],[178.52,152.864],[178.38,153.05],[178.237,153.236],[178.095,153.42],[177.951,153.604],[177.659,153.968],[177.51,154.148],[177.361,154.328],[177.21,154.506],[177.06,154.683],[176.907,154.86],[176.752,155.035],[176.597,155.209],[176.482,155.337],[176.326,155.509],[176.167,155.68],[176.008,155.85],[175.848,156.018],[175.688,156.186],[175.526,156.352],[175.2,156.68],[175.034,156.841],[174.869,157.002],[174.703,157.161],[174.535,157.319],[174.367,157.475],[174.199,157.63],[174.028,157.784],[173.857,157.937],[173.686,158.089],[173.512,158.239],[173.338,158.388],[173.164,158.536],[172.987,158.682],[172.811,158.827],[172.632,158.971],[172.454,159.114],[172.275,159.256],[172.093,159.396],[171.911,159.535],[171.728,159.673],[171.544,159.81],[171.359,159.945],[171.173,160.08],[170.799,160.344],[170.611,160.474],[170.421,160.603],[170.23,160.731],[170.039,160.857],[169.846,160.982],[169.653,161.106],[169.458,161.228],[169.263,161.349],[169.067,161.469],[168.869,161.587],[168.672,161.704],[168.472,161.819],[168.272,161.934],[168.072,162.046],[167.87,162.158],[167.595,162.307],[167.395,162.412],[167.196,162.516],[166.996,162.618],[166.796,162.719],[166.595,162.818],[166.392,162.916],[166.19,163.012],[165.987,163.107],[165.783,163.2],[165.579,163.292],[165.374,163.383],[165.169,163.472],[164.963,163.559],[164.756,163.645],[164.666,163.682],[164.549,163.73],[164.341,163.813],[164.122,163.898],[164.003,163.944],[163.704,164.057],[163.493,164.134],[163.293,164.206],[163.071,164.284],[162.884,164.348],[162.869,164.353],[162.656,164.424],[162.443,164.494],[162.207,164.57],[162.005,164.632],[161.979,164.64],[161.751,164.709],[161.523,164.776],[161.295,164.841],[161.142,164.884],[161.065,164.905],[160.924,164.943],[160.707,165.001],[160.606,165.027],[160.488,165.057],[160.269,165.112],[159.844,165.218],[159.316,165.319],[159.306,165.32],[159.05,165.344],[159.003,165.348],[158.81,165.364],[158.725,165.371],[158.561,165.384],[158.481,165.39],[158.134,165.414],[157.688,165.441],[157.649,165.443],[157.264,165.462],[157.126,165.468],[156.778,165.481],[156.564,165.487],[156.344,165.493],[155.907,165.5],[155.522,165.502],[155.177,165.502],[154.877,165.499],[154.821,165.498],[154.599,165.494],[154.457,165.491],[154.338,165.488],[154.166,165.483],[154.076,165.48],[153.93,165.475],[153.752,165.468],[153.728,165.467],[153.57,165.46],[153.463,165.455],[153.332,165.448],[153.133,165.437],[152.889,165.423],[152.644,165.407],[152.629,165.406],[152.342,165.385],[152.096,165.366],[151.849,165.345],[151.667,165.328],[151.603,165.322],[151.423,165.305],[151.179,165.28],[151.111,165.273],[150.935,165.254],[150.619,165.218],[150.373,165.188],[150.204,165.166],[149.882,165.124],[121.828,161.22],[121.792,161.215],[121.743,161.207],[121.686,161.196],[121.653,161.189],[121.597,161.175],[121.584,161.172],[121.548,161.162],[121.536,161.159],[121.48,161.142],[121.429,161.125],[121.417,161.121],[121.361,161.101],[121.312,161.081],[121.253,161.056],[121.197,161.03],[121.155,161.009],[121.105,160.982],[121.086,160.972],[121.044,160.948],[120.993,160.917],[120.979,160.908],[120.944,160.885],[120.935,160.879],[120.887,160.846],[120.847,160.817],[120.84,160.811],[120.793,160.775],[120.756,160.744],[120.749,160.738],[120.704,160.7],[120.661,160.66],[120.64,160.64],[120.592,160.592],[120.557,160.555],[120.539,160.534],[120.519,160.511],[120.48,160.466],[120.444,160.42],[120.431,160.402],[120.41,160.374],[120.407,160.37],[120.373,160.322],[120.357,160.3],[120.342,160.278],[120.308,160.224],[120.278,160.173],[120.25,160.122],[120.23,160.084],[120.218,160.06],[120.195,160.012],[120.169,159.954],[120.148,159.903],[120.127,159.849],[120.109,159.793],[120.107,159.79],[120.09,159.738],[120.075,159.682],[120.06,159.625],[120.046,159.564],[120.035,159.507],[120.026,159.454],[120.025,159.448],[120.016,159.396],[120.012,159.353],[120.008,159.325],[120.002,159.245],[120,159.208],[120,159.179],[120,140.816]]
M73 P0 R57
;TYPE:Custom
M140 S0
M104 S0 
START_PRINT EXTRUDER_TEMP=205 BED_TEMP=60
G90
G21
M83 ; use relative distances for extrusion
; filament start gcode
M106 S0
;LAYER_CHANGE
;Z:0.2
;HEIGHT:0.2
;BEFORE_LAYER_CHANGE
;0.2
G92 E0

G1 E-.5 F3600
;_SET_FAN_SPEED_CHANGING_LAYER
SET_VELOCITY_LIMIT ACCEL=500 ACCEL_TO_DECEL=250
EXCLUDE_OBJECT_START NAME=3dbenchy.stl_id_0_copy_0
G1 Z.4 F30000
G1 X127.47 Y150.665
G1 Z.4
G1 Z.2
G1 E.5 F2400
;TYPE:Inner wall
;WIDTH:0.499999
G1 F3000
G1 X127.384 Y150.157 E.01919
G1 X127.407 Y149.581 E.02146
G1 X127.499 Y149.226 E.01368
G2 X128.126 Y149.554 I3.042 J-5.048 E.02634
;WIDTH:0.548345
G1 X128.676 Y149.704 E.02352
;WIDTH:0.549546
G1 X129.07 Y149.724 E.01627
G1 X129.253 Y149.674 E.00781
;WIDTH:0.520135
G1 X129.853 Y149.387 E.02588
;WIDTH:0.499999
G1 X130.095 Y149.158 E.0124
G1 X130.463 Y149.284 E.0145
G1 X130.974 Y149.338 E.01911
G2 X130.988 Y151.118 I29.273 J.65 E.06631
;WIDTH:0.473644
G1 X131.003 Y151.581 E.01627
;WIDTH:0.447289
G1 X131.005 Y152.232 E.02145
;WIDTH:0.461906
G1 X130.987 Y152.513 E.00961
;WIDTH:0.497791
G1 X130.97 Y152.794 E.01043
;WIDTH:0.499999
G1 X131.164 Y153.369 E.02262
G1 X131.43 Y153.707 E.01602
G1 X131.835 Y154 E.01861
G2 X132.976 Y154.21 I.968 J-2.058 E.0437
G1 X133.46 Y154.072 E.01875
G1 X133.896 Y153.8 E.01914
G1 X134.238 Y153.427 E.01883
G1 X134.458 Y152.929 E.02031
G1 X134.517 Y152.61 E.01206
;WIDTH:0.473876
G1 X134.529 Y152.124 E.01709
;WIDTH:0.468444
G1 X134.535 Y151.816 E.01068
;WIDTH:0.499999
G2 X134.546 Y149.306 I-79.516 J-1.611 E.09349
G1 X134.689 Y149.298 E.00531
G1 X135.308 Y149.146 E.02375
G1 X135.571 Y149.028 E.01075
G1 X135.688 Y149.138 E.00597
G3 X135.582 Y149.75 I-21.118 J-3.325 E.02313
G1 X135.645 Y150.253 E.01888
G1 X135.81 Y150.599 E.0143
G1 X135.73 Y150.635 E.00329
G1 X135.318 Y150.993 E.02034
G1 X135.035 Y151.452 E.02008
G1 X134.947 Y151.72 E.01049
G1 X134.938 Y152.465 E.02776
G1 X135.031 Y152.88 E.01584
G2 X135.42 Y153.525 I2.299 J-.948 E.02817
G1 X135.841 Y153.882 E.02054
G1 X136.4 Y154.156 E.02319
G1 X137.153 Y154.334 E.0288
G1 X138.017 Y154.358 E.03222
G1 X138.595 Y154.276 E.02174
G2 X139.645 Y153.823 I-1.025 J-3.817 E.04274
G1 X140.115 Y153.436 E.02266
G1 X140.428 Y153.814 E.01828
G1 X140.694 Y154.003 E.01216
G1 X141.227 Y154.191 E.02103
G2 X142.319 Y154.189 I.538 J-4.356 E.04079
G2 X144.3 Y154.01 I.385 J-6.809 E.07436
G1 X144.929 Y153.748 E.02537
G1 X144.981 Y153.755 E.00195
G1 X145.414 Y154.227 E.02386
G1 X146 Y154.533 E.02463
G2 X147.21 Y154.623 I.788 J-2.439 E.04561
G1 X147.765 Y154.429 E.02193
G1 X148.209 Y154.102 E.02053
G2 X148.8 Y154.318 I.681 J-.948 E.02372
G1 X149.338 Y154.333 E.02003
G1 X149.681 Y154.229 E.01335
G1 X150.114 Y153.974 E.01871
G2 X150.542 Y154.257 I.859 J-.835 E.01928
G1 X151.098 Y154.4 E.02136
G1 X151.063 Y154.473 E.00302
G1 X150.989 Y154.893 E.01589
G1 X151.009 Y155.408 E.0192
G1 X151.219 Y155.946 E.02148
G1 X151.522 Y156.39 E.02001
G1 X151.878 Y156.655 E.01657
G3 X149.215 Y156.759 I-1.842 J-13.106 E.09946
G1 X126.474 Y155.373 E.84858
G1 X125.709 Y155.295 E.02862
G1 X125.553 Y155.194 E.00695
G1 X125.445 Y154.86 E.01306
G1 X125.442 Y153.714 E.04267
G1 X125.802 Y153.942 E.01584
G1 X126.606 Y154.249 E.03206
G1 X127.373 Y154.36 E.02886
G1 X128.261 Y154.318 E.03311
G1 X128.96 Y154.132 E.02695
G1 X129.422 Y153.908 E.01912
G2 X130.161 Y153.28 I-2.13 J-3.251 E.03623
G1 X130.43 Y152.838 E.01926
G1 X130.507 Y152.639 E.00796
;WIDTH:0.473262
G1 X130.583 Y152.44 E.00749
;WIDTH:0.446524
G1 X130.643 Y151.956 E.01602
;WIDTH:0.451779
G1 X130.594 Y151.67 E.00969
;WIDTH:0.48281
G1 X130.546 Y151.383 E.01042
;WIDTH:0.499999
G1 X130.289 Y150.929 E.01944
G1 X130.1 Y150.73 E.01023
G1 X129.747 Y150.478 E.01613
;WIDTH:0.520135
G1 X129.264 Y150.271 E.02045
;WIDTH:0.538862
G2 X128.475 Y150.242 I-.468 J1.985 E.0321
;WIDTH:0.521033
G1 X127.894 Y150.46 E.02418
;WIDTH:0.499999
G1 X127.548 Y150.733 E.01642
G1 X127.5 Y150.691 E.00236
G1 E-.35 F3600
;WIPE_START
G1 F3000
G1 X127.384 Y150.157 E-.082
G1 X127.402 Y149.704 E-.068
;WIPE_END
G1 Z.6 F30000
G1 X140.14 Y149.016 Z.6
G1 Z.2
G1 E.5 F2400
;WIDTH:0.55662
G1 F3000
G1 X140.238 Y148.883 E.00692
G1 X140.263 Y149.142 E.01088
;WIDTH:0.508247
G1 X140.288 Y149.401 E.00985
;WIDTH:0.459874
G1 X140.289 Y150.137 E.02503
G1 X140.119 Y149.822 E.01216
G1 X139.808 Y149.475 E.01583
G1 X139.933 Y149.297 E.0074
;WIDTH:0.508247
G1 X140.086 Y149.09 E.00975
;WIDTH:0.55662
G1 X140.117 Y149.049 E.00216
G1 E-.35 F3600
;WIPE_START
G1 F3000
G1 X140.238 Y148.883 E-.03081
G1 X140.263 Y149.142 E-.03898
G1 X140.288 Y149.401 E-.03898
G1 X140.288 Y149.675 E-.04123
;WIPE_END
G1 Z.6 F30000
G1 X155.105 Y155.802 Z.6
G1 Z.2
G1 E.5 F2400
;WIDTH:0.499999
G1 F3000
G2 X156.138 Y153.478 I-13.01 J-7.177 E.09482
G1 X156.259 Y153.69 E.00907
G1 X156.655 Y154.104 E.02133
G1 X156.945 Y154.252 E.01215
G1 X157.452 Y154.397 E.01966
G1 X157.719 Y154.411 E.00993
G3 X155.142 Y155.787 I-7.894 J-11.682 E.109
G1 E-.35 F3600
;WIPE_START
G1 F3000
G1 X155.45 Y155.161 E-.10455
G1 X155.573 Y154.884 E-.04545
;WIPE_END
G1 Z.6 F30000
G1 X160.749 Y151.083 Z.6
G1 Z.2
G1 E.5 F2400
;WIDTH:0.386955
G1 F3000
G1 X160.902 Y150.881 E.00709
;WIDTH:0.386033
G1 X161.263 Y150.357 E.01778
;WIDTH:0.386955
G2 X161.628 Y149.6 I-2.682 J-1.76 E.02366
G1 X161.836 Y149.968 E.01185
G1 X161.807 Y150.082 E.00331
G3 X161.052 Y151.274 I-9.453 J-5.149 E.03957
G2 X160.788 Y151.093 I-.436 J.355 E.00911
G1 X160.067 Y151.299 F30000
;WIDTH:0.499999
G1 F3000
G2 X160.923 Y150.153 I-15.756 J-12.666 E.0533
G2 X161.256 Y149.448 I-2.413 J-1.571 E.02913
G1 X161.306 Y148.881 E.02117
;WIDTH:0.537919
G1 X161.264 Y148.627 E.01042
;WIDTH:0.575838
G1 X161.222 Y148.372 E.01122
G1 X161.343 Y148.503 E.00774
;WIDTH:0.542016
G1 X161.463 Y148.634 E.00725
;WIDTH:0.508194
G1 X161.763 Y149.062 E.01982
;WIDTH:0.499999
G3 X162.233 Y149.919 I-3.081 J2.251 E.03649
G1 X162.218 Y150.167 E.00928
G3 X161.495 Y151.331 I-8.433 J-4.436 E.05109
G1 X161.105 Y151.928 E.02657
G1 X161.061 Y151.856 E.00314
G1 X160.742 Y151.517 E.01735
G1 X160.624 Y151.466 E.00477
G1 X160.105 Y151.31 E.02019
G1 E-.35 F3600
;WIPE_START
G1 F3000
G1 X160.574 Y150.652 E-.12132
G1 X160.684 Y150.495 E-.02868
;WIPE_END
G1 Z.6 F30000
G1 X147.776 Y150.26 Z.6
G1 Z.2
G1 E.5 F2400
;WIDTH:0.584499
G1 F3000
G2 X146.963 Y150.056 I-.888 J1.821 E.03728
G2 X146.938 Y149.561 I-2.115 J-.144 E.02191
;WIDTH:0.552729
G1 X146.911 Y149.298 E.01097
;WIDTH:0.552175
G1 X146.839 Y148.74 E.02336
G1 X146.763 Y148.502 E.01035
;WIDTH:0.512058
G1 X146.436 Y147.658 E.03461
;WIDTH:0.499999
G1 X145.955 Y146.936 E.03232
G1 X145.398 Y146.417 E.02838
G1 X144.819 Y146.082 E.02489
G1 X144.235 Y145.888 E.02294
